dist/img/box.svg

<?xml version="1.0" encoding="UTF-8"?>
<svg width="54px" height="54px" viewBox="0 0 54 54" version="1.1" xmlns="http://www.w3.org/2000/svg" xmlns:xlink="http://www.w3.org/1999/xlink">
    <!-- Generator: sketchtool 52.5 (67469) - http://www.bohemiancoding.com/sketch -->
    <title>7920AA17-FC67-4A58-8AA0-2A5C35A7B0C8</title>
    <desc>Created with sketchtool.</desc>
    <g id="Page-1" stroke="none" stroke-width="1" fill="none" fill-rule="evenodd">
        <g id="desktop" transform="translate(-964.000000, -1432.000000)" fill="#E52081" fill-rule="nonzero">
            <g id="Group-3" transform="translate(931.000000, 1400.000000)">
                <path d="M60.0088816,32.5292763 C59.9691157,32.5403814 59.9299231,32.5534456 59.8914474,32.5684211 L42.5894737,32.5684211 C42.5503505,32.5665853 42.5111627,32.5665853 42.4720395,32.5684211 C42.4329163,32.5665853 42.3937285,32.5665853 42.3546053,32.5684211 C42.1520652,32.6129897 41.9637579,32.7071434 41.8065789,32.8424342 L34.4082237,39.0273026 L34.2907895,39.1055921 C34.2356138,39.1405935 34.1832611,39.1798581 34.1342105,39.2230263 C34.1208756,39.2357847 34.1078242,39.2488362 34.0950658,39.2621711 C34.0948619,39.2752185 34.0948619,39.2882683 34.0950658,39.3013158 C34.0820183,39.301112 34.0689685,39.301112 34.0559211,39.3013158 C34.0551054,39.3274059 34.0551054,39.3535151 34.0559211,39.3796053 C34.0276385,39.4172477 34.0015005,39.4564546 33.9776316,39.4970395 C33.9303703,39.5710006 33.8910095,39.6497221 33.8601974,39.7319079 C33.8397217,39.808777 33.8266143,39.8874216 33.8210526,39.9667763 C33.8137004,40.0448932 33.8137004,40.1235279 33.8210526,40.2016447 L33.8210526,83.9263158 C33.8211218,84.6180965 34.3819035,85.1788782 35.0736842,85.1789474 L85.1789474,85.1789474 C85.870728,85.1788782 86.4315098,84.6180965 86.4315789,83.9263158 L86.4315789,40.2799342 C86.4366812,40.2147927 86.4366812,40.149352 86.4315789,40.0842105 C86.4323946,40.0581204 86.4323946,40.0320112 86.4315789,40.0059211 C86.4317827,39.9928736 86.4317827,39.9798238 86.4315789,39.9667763 C86.4323946,39.9406862 86.4323946,39.914577 86.4315789,39.8884868 C86.4188205,39.875152 86.4057691,39.8621005 86.3924342,39.8493421 C86.3932498,39.823252 86.3932498,39.7971427 86.3924342,39.7710526 C86.392638,39.7580052 86.392638,39.7449553 86.3924342,39.7319079 C86.3803019,39.7053634 86.3672457,39.679251 86.3532895,39.6536184 C86.340531,39.6402835 86.3274796,39.6272321 86.3141447,39.6144737 C86.3149604,39.5883836 86.3149604,39.5622743 86.3141447,39.5361842 C86.3013863,39.5228493 86.2883349,39.5097979 86.275,39.4970395 C86.2628677,39.470495 86.2498115,39.4443825 86.2358553,39.41875 C86.2230968,39.4054151 86.2100454,39.3923637 86.1967105,39.3796053 C86.1839522,39.3662703 86.1709008,39.3532188 86.1575658,39.3404605 C86.1454331,39.3139162 86.1323769,39.2878038 86.1184211,39.2621711 C86.1056627,39.2488361 86.0926113,39.2357846 86.0792763,39.2230263 C86.0665179,39.2096914 86.0534665,39.19664 86.0401316,39.1838816 C86.0273733,39.1705466 86.0143218,39.1574952 86.0009868,39.1447368 C85.9882284,39.131402 85.975177,39.1183505 85.9618421,39.1055921 L85.8444079,39.0273026 C85.8194779,39.0000651 85.7933559,38.9739431 85.7661184,38.9490132 L78.4460526,32.8424342 C78.2237739,32.6648463 77.9476667,32.5682087 77.6631579,32.5684211 L60.4003289,32.5684211 C60.2727223,32.5348389 60.1406113,32.5216278 60.0088816,32.5292763 Z M43.0592105,35.0736842 L58.8736842,35.0736842 L58.8736842,38.8315789 L38.5575658,38.8315789 L43.0592105,35.0736842 Z M61.3789474,35.0736842 L77.1934211,35.0736842 L81.6950658,38.8315789 L61.3789474,38.8315789 L61.3789474,35.0736842 Z M36.3263158,41.3368421 L83.9263158,41.3368421 L83.9263158,82.6736842 L36.3263158,82.6736842 L36.3263158,41.3368421 Z M55.7421053,46.3473684 C54.0092987,46.3473684 52.6105263,47.7461408 52.6105263,49.4789474 C52.6105263,51.211754 54.0092987,52.6105263 55.7421053,52.6105263 L64.5105263,52.6105263 C66.2433329,52.6105263 67.6421053,51.211754 67.6421053,49.4789474 C67.6421053,47.7461408 66.2433329,46.3473684 64.5105263,46.3473684 L55.7421053,46.3473684 Z M55.7421053,48.8526316 L64.5105263,48.8526316 C64.7819302,48.8526316 65.1368421,49.2075434 65.1368421,49.4789474 C65.1368421,49.7503513 64.7819302,50.1052632 64.5105263,50.1052632 L55.7421053,50.1052632 C55.4707013,50.1052632 55.1157895,49.7503513 55.1157895,49.4789474 C55.1157895,49.2075434 55.4707013,48.8526316 55.7421053,48.8526316 Z M67.6421053,66.3894737 L63.8842105,70.1473684 L66.3894737,70.1473684 L66.3894737,75.1578947 L68.8947368,75.1578947 L68.8947368,70.1473684 L71.4,70.1473684 L67.6421053,66.3894737 Z M76.4105263,66.3894737 L72.6526316,70.1473684 L75.1578947,70.1473684 L75.1578947,75.1578947 L77.6631579,75.1578947 L77.6631579,70.1473684 L80.1684211,70.1473684 L76.4105263,66.3894737 Z M63.8842105,76.4105263 L63.8842105,78.9157895 L80.1684211,78.9157895 L80.1684211,76.4105263 L63.8842105,76.4105263 Z" id="Shape"></path>
            </g>
        </g>
    </g>
</svg>

<svg width="54" height="54" viewBox="0 0 54 54" xmlns="http://www.w3.org/2000/svg" xmlns:xlink="http://www.w3.org/1999/xlink"><g id="Page-1" stroke="none" stroke-width="1" fill="none" fill-rule="evenodd"><g id="desktop" transform="translate(-964 -1432)" fill="#E52081" fill-rule="nonzero"><g id="Group-3" transform="translate(931 1400)"><path d="M60.009 32.53a.955.955 0 0 0-.118.038H42.59a1.253 1.253 0 0 0-.117 0 1.253 1.253 0 0 0-.117 0c-.203.045-.391.14-.548.274l-7.399 6.185-.117.079a1.253 1.253 0 0 0-.196.156v.04h-.04v.078a1.253 1.253 0 0 0-.077.117 1.253 1.253 0 0 0-.118.235c-.02.077-.033.155-.039.235a1.253 1.253 0 0 0 0 .235v43.724c0 .692.56 1.253 1.253 1.253H85.18c.692 0 1.253-.56 1.253-1.253V40.28c.005-.065.005-.13 0-.196a1.253 1.253 0 0 0 0-.117v-.079a1.253 1.253 0 0 0-.04-.039 1.253 1.253 0 0 0 0-.117 1.253 1.253 0 0 0-.039-.078 1.253 1.253 0 0 0-.039-.04v-.078a1.253 1.253 0 0 0-.039-.039 1.253 1.253 0 0 0-.04-.078 1.253 1.253 0 0 0-.077-.079 1.253 1.253 0 0 0-.04-.078 1.253 1.253 0 0 0-.078-.078 1.253 1.253 0 0 0-.078-.078l-.118-.079a1.253 1.253 0 0 0-.078-.078l-7.32-6.107a1.253 1.253 0 0 0-.783-.274H60.4a1.253 1.253 0 0 0-.391-.039zm-16.95 2.544h15.815v3.758H38.558l4.501-3.758zm18.32 0h15.814l4.502 3.758H61.38v-3.758zm-25.053 6.263h47.6v41.337h-47.6V41.337zm19.416 5.01a3.127 3.127 0 0 0-3.131 3.132 3.127 3.127 0 0 0 3.131 3.132h8.769a3.127 3.127 0 0 0 3.131-3.132 3.127 3.127 0 0 0-3.131-3.132h-8.769zm0 2.506h8.769c.27 0 .626.355.626.626s-.355.626-.626.626h-8.769c-.271 0-.626-.355-.626-.626s.355-.626.626-.626zm11.9 17.536l-3.758 3.758h2.505v5.01h2.506v-5.01H71.4l-3.758-3.758zm8.769 0l-3.758 3.758h2.505v5.01h2.505v-5.01h2.505l-3.757-3.758zM63.884 76.411v2.505h16.284V76.41H63.884z" id="Shape"/></g></g></g></svg>
